groups/nitrogen/imine.svg

<svg height="256" viewBox="0 0 256 256" width="256" xmlns="http://www.w3.org/2000/svg"><path d="m0 0h256v256h-256z" fill="#fff"/><g fill="none" stroke-width="2"><path d="m227 135.5-54.8-31.6" stroke="#000"/><path d="m172.2 103.9-41.3 23.9" stroke="#000"/><path d="m172.2 114.9-36.6 21.2" stroke="#000"/><path d="m103.9 127.9-27.9-16.1" stroke="#000"/><path d="m174.9 105.5-2.7-1.6-2.1 1.2" stroke="#000" stroke-miterlimit="10"/><path d="m242.8 108.131c-2.056-1.185-3.636 1.557-1.58 2.742s.476 3.927-1.58 2.741c-2.057-1.185-3.637 1.557-1.581 2.742s.476 3.927-1.58 2.741c-2.056-1.185-3.636 1.557-1.58 2.742s.476 3.927-1.58 2.742c-2.057-1.186-3.637 1.556-1.581 2.741s.476 3.927-1.58 2.742c-2.056-1.186-3.636 1.556-1.58 2.741s.476 3.927-1.58 2.742c-2.057-1.186-3.637 1.556-1.581 2.741s.476 3.927-1.58 2.742-3.636 1.556-1.58 2.741c2.056 1.186.476 3.927-1.58 2.742-2.057-1.185-3.637 1.556-1.581 2.741 2.056 1.186.476 3.927-1.58 2.742s-3.636 1.556-1.58 2.742c2.056 1.185.476 3.926-1.58 2.741-2.057-1.185-3.637 1.556-1.581 2.742 2.057 1.185.476 3.926-1.58 2.741" stroke="#7f7f7f"/></g><text font-family="sans-serif" font-size="37" x="106" y="154.6">N</text><text font-family="sans-serif" font-size="37" x="12.8" y="123">H</text><text font-family="sans-serif" font-size="25" x="39" y="138.2">3</text><text font-family="sans-serif" font-size="37" x="51.2" y="123">C</text></svg>

<?xml version='1.0' encoding='iso-8859-1'?>
<svg version='1.1' baseProfile='full'
              xmlns='http://www.w3.org/2000/svg'
                      xmlns:rdkit='http://www.rdkit.org/xml'
                      xmlns:xlink='http://www.w3.org/1999/xlink'
                  xml:space='preserve'
width='256px' height='256px' viewBox='0 0 256 256'>
<!-- END OF HEADER -->
<rect style='opacity:1.0;fill:#FFFFFF;stroke:none' width='256.0' height='256.0' x='0.0' y='0.0'> </rect>
<path class='bond-0 atom-0 atom-1' d='M 227.0,135.5 L 172.2,103.9' style='fill:none;fill-rule:evenodd;stroke:#000000;stroke-width:2.0px;stroke-linecap:butt;stroke-linejoin:miter;stroke-opacity:1' />
<path class='bond-1 atom-1 atom-2' d='M 172.2,103.9 L 130.9,127.8' style='fill:none;fill-rule:evenodd;stroke:#000000;stroke-width:2.0px;stroke-linecap:butt;stroke-linejoin:miter;stroke-opacity:1' />
<path class='bond-1 atom-1 atom-2' d='M 172.2,114.9 L 135.6,136.1' style='fill:none;fill-rule:evenodd;stroke:#000000;stroke-width:2.0px;stroke-linecap:butt;stroke-linejoin:miter;stroke-opacity:1' />
<path class='bond-2 atom-2 atom-3' d='M 103.9,127.9 L 76.0,111.8' style='fill:none;fill-rule:evenodd;stroke:#000000;stroke-width:2.0px;stroke-linecap:butt;stroke-linejoin:miter;stroke-opacity:1' />
<path d='M 174.9,105.5 L 172.2,103.9 L 170.1,105.1' style='fill:none;stroke:#000000;stroke-width:2.0px;stroke-linecap:butt;stroke-linejoin:miter;stroke-miterlimit:10;stroke-opacity:1;' />
<path class='atom-1' d='M242.8,108.131 C240.744,106.946 239.164,109.688 241.22,110.873 C243.276,112.058 241.696,114.8 239.64,113.614 C237.583,112.429 236.003,115.171 238.059,116.356 C240.115,117.541 238.535,120.283 236.479,119.097 C234.423,117.912 232.843,120.654 234.899,121.839 C236.955,123.024 235.375,125.766 233.319,124.581 C231.262,123.395 229.682,126.137 231.738,127.322 C233.794,128.507 232.214,131.249 230.158,130.064 C228.102,128.878 226.522,131.62 228.578,132.805 C230.634,133.99 229.054,136.732 226.998,135.547 C224.941,134.361 223.361,137.103 225.417,138.288 C227.473,139.473 225.893,142.215 223.837,141.03 C221.781,139.845 220.201,142.586 222.257,143.771 C224.313,144.957 222.733,147.698 220.677,146.513 C218.62,145.328 217.04,148.069 219.096,149.254 C221.152,150.44 219.572,153.181 217.516,151.996 C215.46,150.811 213.88,153.552 215.936,154.738 C217.992,155.923 216.412,158.664 214.356,157.479 C212.299,156.294 210.719,159.035 212.775,160.221 C214.832,161.406 213.251,164.147 211.195,162.962' style='fill:none;stroke:#7F7F7F;stroke-width:2.0px;stroke-linecap:butt;stroke-linejoin:miter;stroke-opacity:1' />
<text x='106.0' y='154.6' class='atom-2' style='font-size:37px;font-style:normal;font-weight:normal;fill-opacity:1;stroke:none;font-family:sans-serif;text-anchor:start;fill:#000000' >N</text>
<text x='12.8' y='123.0' class='atom-3' style='font-size:37px;font-style:normal;font-weight:normal;fill-opacity:1;stroke:none;font-family:sans-serif;text-anchor:start;fill:#000000' >H</text>
<text x='39.0' y='138.2' class='atom-3' style='font-size:25px;font-style:normal;font-weight:normal;fill-opacity:1;stroke:none;font-family:sans-serif;text-anchor:start;fill:#000000' >3</text>
<text x='51.2' y='123.0' class='atom-3' style='font-size:37px;font-style:normal;font-weight:normal;fill-opacity:1;stroke:none;font-family:sans-serif;text-anchor:start;fill:#000000' >C</text>
</svg>
